usr/share/icons/biglinux-icons-material/22/actions/call-voicemail.svg

<svg viewBox="0 0 22 22" xmlns="http://www.w3.org/2000/svg">
    <style type="text/css" id="current-color-scheme">
        .ColorScheme-Text {
            color:#363636;
        }
    </style>
    <g class="ColorScheme-Text" fill="currentColor" fill-rule="evenodd">
        <path d="m4.5 7a4.5 4.5 0 0 0-4.5 4.5 4.5 4.5 0 0 0 4.5 4.5 4.5 4.5 0 0 0 4.5-4.5 4.5 4.5 0 0 0-4.5-4.5zm0 1a3.5 3.5 0 0 1 3.5 3.5 3.5 3.5 0 0 1-3.5 3.5 3.5 3.5 0 0 1-3.5-3.5 3.5 3.5 0 0 1 3.5-3.5z"/>
        <path d="m17.5 7a4.5 4.5 0 0 0-4.5 4.5 4.5 4.5 0 0 0 4.5 4.5 4.5 4.5 0 0 0 4.5-4.5 4.5 4.5 0 0 0-4.5-4.5zm0 1a3.5 3.5 0 0 1 3.5 3.5 3.5 3.5 0 0 1-3.5 3.5 3.5 3.5 0 0 1-3.5-3.5 3.5 3.5 0 0 1 3.5-3.5z"/>
        <path d="m4.5 15h13v1h-13z"/>
    </g>
</svg>

<svg xmlns="http://www.w3.org/2000/svg" viewBox="0 0 22 22"><g fill="currentColor" fill-rule="evenodd" style="color:#dedede"><path d="M4.5 7A4.5 4.5 0 0 0 0 11.5 4.5 4.5 0 0 0 4.5 16 4.5 4.5 0 0 0 9 11.5 4.5 4.5 0 0 0 4.5 7zm0 1A3.5 3.5 0 0 1 8 11.5 3.5 3.5 0 0 1 4.5 15 3.5 3.5 0 0 1 1 11.5 3.5 3.5 0 0 1 4.5 8zM17.5 7a4.5 4.5 0 0 0-4.5 4.5 4.5 4.5 0 0 0 4.5 4.5 4.5 4.5 0 0 0 4.5-4.5A4.5 4.5 0 0 0 17.5 7zm0 1a3.5 3.5 0 0 1 3.5 3.5 3.5 3.5 0 0 1-3.5 3.5 3.5 3.5 0 0 1-3.5-3.5A3.5 3.5 0 0 1 17.5 8z"/><path d="M4.5 15h13v1h-13z"/></g></svg>
